; generated by PrusaSlicer 2.2.0+win64 on 2020-07-14 at 17:16:22 UTC

; 

; external perimeters extrusion width = 0.45mm
; perimeters extrusion width = 0.45mm
; infill extrusion width = 0.45mm
; solid infill extrusion width = 0.45mm
; top infill extrusion width = 0.40mm
; first layer extrusion width = 0.42mm

M73 P0 R148
M73 Q0 S149
M201 X1000 Y1000 Z1000 E5000 ; sets maximum accelerations, mm/sec^2
M203 X200 Y200 Z12 E120 ; sets maximum feedrates, mm/sec
M204 P1250 R1250 T1250 ; sets acceleration (P, T) and retract acceleration (R), mm/sec^2
M205 X8.00 Y8.00 Z0.40 E4.50 ; sets the jerk limits, mm/sec
M205 S0 T0 ; sets the minimum extruding and travel feed rate, mm/sec
M107
M862.3 P "MK3S" ; printer model check
M862.1 P0.4 ; nozzle diameter check
M115 U3.8.1 ; tell printer latest fw version
G90 ; use absolute coordinates
M83 ; extruder relative mode
M104 S215 ; set extruder temp
M140 S60 ; set bed temp
M190 S60 ; wait for bed temp
M109 S215 ; wait for extruder temp
G28 W ; home all without mesh bed level
G80 ; mesh bed leveling
G1 Y-3.0 F1000.0 ; go outside print area
G92 E0.0
G1 X60.0 E9.0 F1000.0 ; intro line
M73 Q0 S149
M73 P0 R148
G1 X100.0 E12.5 F1000.0 ; intro line
G92 E0.0
M221 S95
G21 ; set units to millimeters
G90 ; use absolute coordinates
M83 ; use relative distances for extrusion
M900 K30 ; Filament gcode
;BEFORE_LAYER_CHANGE
G92 E0.0
;0.2


G1 E-0.80000 F2100.00000
G1 Z0.600 F10800.000
;AFTER_LAYER_CHANGE
;0.2
G1 X51.404 Y71.762
G1 Z0.200
G1 E0.80000 F2100.00000
M204 S1000
G1 F1200.000
G1 X52.203 Y71.623 E0.02543
G1 X197.798 Y71.623 E4.56501
G1 X198.608 Y71.766 E0.02579
G1 X199.320 Y72.177 E0.02579
G1 X209.116 Y81.114 E0.41576
G1 X209.673 Y81.893 E0.03001
G1 X209.877 Y82.828 E0.03001
G1 X209.830 Y127.616 E1.40429
G1 X209.579 Y128.296 E0.02272
G1 X209.132 Y128.871 E0.02284
G1 X199.374 Y137.776 E0.41422
G1 X198.596 Y138.238 E0.02837
G1 X197.797 Y138.377 E0.02543
G1 X52.050 Y138.372 E4.56978
G1 X51.293 Y138.195 E0.02437
G1 X50.631 Y137.780 E0.02449
G1 X40.864 Y128.868 E0.41457
G1 X40.509 Y128.441 E0.01740
G1 X40.262 Y127.944 E0.01740
G1 X40.123 Y127.149 E0.02532
G1 X40.168 Y82.395 E1.40322
G1 X40.418 Y81.711 E0.02284
G1 X40.865 Y81.132 E0.02296
G1 X50.626 Y72.224 E0.41434
G1 X51.353 Y71.793 E0.02649
G1 F8640.000
G1 X52.203 Y71.623 E-0.20031
G1 X54.627 Y71.623 E-0.55969
G1 E-0.04000 F2100.00000
G1 Z0.800 F10800.000
G1 X112.261 Y99.723
G1 Z0.200
G1 E0.80000 F2100.00000
G1 F1200.000
G1 X113.059 Y98.106 E0.05655
G1 X114.061 Y96.606 E0.05655
G1 X115.250 Y95.250 E0.05655
G1 X116.606 Y94.061 E0.05655
G1 X118.106 Y93.059 E0.05655
G1 X119.723 Y92.261 E0.05655
G1 X121.431 Y91.681 E0.05655
G1 X123.200 Y91.329 E0.05655
G1 X124.900 Y91.218 E0.05341
G1 X126.798 Y91.329 E0.05960
G1 X128.569 Y91.681 E0.05662
G1 X130.277 Y92.261 E0.05655
G1 X131.894 Y93.059 E0.05655
G1 X133.394 Y94.061 E0.05655
G1 X134.750 Y95.250 E0.05655
G1 X135.939 Y96.606 E0.05655
G1 X136.941 Y98.106 E0.05655
G1 X137.739 Y99.723 E0.05655
G1 X138.319 Y101.431 E0.05655
G1 X138.651 Y103.102 E0.05341
G1 X138.789 Y104.998 E0.05960
G1 X138.671 Y106.800 E0.05662
G1 X138.319 Y108.569 E0.05655
G1 X137.739 Y110.277 E0.05655
G1 X136.941 Y111.894 E0.05655
G1 X135.939 Y113.394 E0.05655
G1 X134.750 Y114.750 E0.05655
G1 X133.394 Y115.939 E0.05655
G1 X131.894 Y116.941 E0.05655
G1 X130.277 Y117.739 E0.05655
G1 X128.569 Y118.319 E0.05655
G1 X126.800 Y118.671 E0.05655
G1 X125.000 Y118.789 E0.05655
G1 X123.200 Y118.671 E0.05655
G1 X121.431 Y118.319 E0.05655
G1 X119.723 Y117.739 E0.05655
G1 X118.106 Y116.941 E0.05655
G1 X116.689 Y115.995 E0.05341
G1 X115.251 Y114.752 E0.05960
G1 X114.061 Y113.394 E0.05662
G1 X113.059 Y111.894 E0.05655
G1 X112.261 Y110.277 E0.05655
G1 X111.681 Y108.569 E0.05655
G1 X111.329 Y106.800 E0.05655
G1 X111.211 Y105.000 E0.05655
G1 X111.329 Y103.200 E0.05655
G1 X111.681 Y101.431 E0.05655
G1 X112.242 Y99.780 E0.05467
G1 X112.599 Y99.901 F10800.000
G1 F1200.000
G1 X113.386 Y98.295 E0.05610
G1 X114.360 Y96.836 E0.05500
G1 X115.517 Y95.517 E0.05500
G1 X116.836 Y94.360 E0.05500
G1 X118.295 Y93.386 E0.05500
G1 X119.868 Y92.610 E0.05500
G1 X121.529 Y92.046 E0.05500
G1 X123.250 Y91.704 E0.05500
G1 X124.901 Y91.596 E0.05190
G1 X126.750 Y91.704 E0.05805
G1 X128.471 Y92.046 E0.05503
G1 X130.132 Y92.610 E0.05500
G1 X131.705 Y93.386 E0.05500
G1 X133.164 Y94.360 E0.05500
G1 X134.483 Y95.517 E0.05500
G1 X135.640 Y96.836 E0.05500
G1 X136.614 Y98.295 E0.05500
G1 X137.390 Y99.868 E0.05500
G1 X137.954 Y101.529 E0.05500
G1 X138.277 Y103.153 E0.05190
G1 X138.411 Y104.999 E0.05805
G1 X138.296 Y106.750 E0.05503
G1 X137.954 Y108.471 E0.05500
G1 X137.390 Y110.132 E0.05500
G1 X136.614 Y111.705 E0.05500
G1 X135.640 Y113.164 E0.05500
G1 X134.483 Y114.483 E0.05500
G1 X133.164 Y115.640 E0.05500
G1 X131.705 Y116.614 E0.05500
G1 X130.132 Y117.390 E0.05500
G1 X128.471 Y117.954 E0.05500
G1 X126.750 Y118.296 E0.05500
G1 X125.000 Y118.411 E0.05500
G1 X123.250 Y118.296 E0.05500
G1 X121.529 Y117.954 E0.05500
G1 X119.868 Y117.390 E0.05500
G1 X118.295 Y116.614 E0.05500
G1 X116.918 Y115.694 E0.05190
G1 X115.518 Y114.483 E0.05805
G1 X114.360 Y113.164 E0.05503
G1 X113.386 Y111.705 E0.05500
G1 X112.610 Y110.132 E0.05500
G1 X112.046 Y108.471 E0.05500
G1 X111.704 Y106.750 E0.05500
G1 X111.589 Y105.000 E0.05500
G1 X111.704 Y103.250 E0.05500
G1 X112.046 Y101.529 E0.05500
G1 X112.579 Y99.958 E0.05201
G1 X112.355 Y99.584 F10800.000
G1 F8640.000
G1 X113.386 Y98.295 E-0.42688
G1 X114.187 Y97.095 E-0.33312
G1 E-0.04000 F2100.00000
G1 Z0.800 F10800.000
G1 X161.188 Y101.063
G1 Z0.200
G1 E0.80000 F2100.00000
G1 F1200.000
G1 X169.062 Y101.063 E0.24689
G1 X169.062 Y108.937 E0.24689
G1 X161.188 Y108.937 E0.24689
G1 X161.188 Y101.123 E0.24501
G1 X161.565 Y101.440 F10800.000
G1 F1200.000
G1 X168.685 Y101.440 E0.22324
G1 X168.685 Y108.560 E0.22324
G1 X161.565 Y108.560 E0.22324
G1 X161.565 Y101.500 E0.22136
G1 X161.461 Y101.054 F10800.000
G1 F8640.000
G1 X164.856 Y101.472 E-0.76000
G1 E-0.04000 F2100.00000
G1 Z0.800 F10800.000
G1 X80.938 Y101.063
G1 Z0.200
G1 E0.80000 F2100.00000
G1 F1200.000
G1 X88.812 Y101.063 E0.24689
G1 X88.812 Y108.937 E0.24689
G1 X80.938 Y108.937 E0.24689
G1 X80.938 Y101.123 E0.24501
G1 X81.315 Y101.440 F10800.000
G1 F1200.000
G1 X88.435 Y101.440 E0.22324
G1 X88.435 Y108.560 E0.22324
G1 X81.315 Y108.560 E0.22324
G1 X81.315 Y101.500 E0.22136
G1 X81.211 Y101.054 F10800.000
G1 F8640.000
G1 X84.606 Y101.472 E-0.76000
G1 E-0.04000 F2100.00000
G1 Z0.800 F10800.000
G1 X61.125 Y79.787
G1 Z0.200
G1 E0.80000 F2100.00000
G1 F1200.000
G1 X72.405 Y79.787 E0.35368
G1 X72.405 Y74.787 E0.15677
G1 X80.536 Y74.787 E0.25496
G1 X80.536 Y79.787 E0.15677
G1 X91.816 Y79.787 E0.35368
G1 X91.816 Y74.787 E0.15677
G1 X99.948 Y74.787 E0.25496
G1 X99.948 Y79.787 E0.15677
G1 X111.228 Y79.787 E0.35368
G1 X111.228 Y74.787 E0.15677
G1 X119.360 Y74.787 E0.25496
G1 X119.360 Y79.787 E0.15677
G1 X130.640 Y79.787 E0.35368
G1 X130.640 Y74.787 E0.15677
G1 X138.772 Y74.787 E0.25496
G1 X138.772 Y79.787 E0.15677
G1 X150.052 Y79.787 E0.35368
G1 X150.052 Y74.787 E0.15677
G1 X158.184 Y74.787 E0.25496
G1 X158.184 Y79.787 E0.15677
G1 X169.464 Y79.787 E0.35368
G1 X169.464 Y74.787 E0.15677
G1 X177.595 Y74.787 E0.25496
G1 X177.595 Y79.787 E0.15677
G1 X188.875 Y79.787 E0.35368
G1 X188.875 Y74.787 E0.15677
G1 X197.007 Y74.787 E0.25496
G1 X197.007 Y79.787 E0.15677
G1 X201.713 Y79.787 E0.14755
G1 X201.713 Y83.644 E0.12094
G1 X206.713 Y83.644 E0.15677
G1 X206.713 Y90.927 E0.22835
G1 X201.713 Y90.927 E0.15677
G1 X201.713 Y101.359 E0.32707
G1 X206.713 Y101.359 E0.15677
G1 X206.713 Y108.641 E0.22835
G1 X201.713 Y108.641 E0.15677
G1 X201.713 Y119.073 E0.32707
G1 X206.713 Y119.073 E0.15677
G1 X206.713 Y126.356 E0.22835
G1 X201.713 Y126.356 E0.15677
G1 X201.713 Y130.213 E0.12094
G1 X197.007 Y130.213 E0.14755
G1 X197.007 Y135.213 E0.15677
G1 X188.875 Y135.213 E0.25496
M73 Q0 S148
G1 X188.875 Y130.213 E0.15677
G1 X177.595 Y130.213 E0.35368
M73 P0 R147
G1 X177.595 Y135.213 E0.15677
G1 X169.464 Y135.213 E0.25496
G1 X169.464 Y130.213 E0.15677
G1 X158.184 Y130.213 E0.35368
G1 X158.184 Y135.213 E0.15677
G1 X150.052 Y135.213 E0.25496
G1 X150.052 Y130.213 E0.15677
G1 X138.772 Y130.213 E0.35368
G1 X138.772 Y135.213 E0.15677
G1 X130.640 Y135.213 E0.25496
G1 X130.640 Y130.213 E0.15677
G1 X119.360 Y130.213 E0.35368
G1 X119.360 Y135.213 E0.15677
G1 X111.228 Y135.213 E0.25496
G1 X111.228 Y130.213 E0.15677
G1 X99.948 Y130.213 E0.35368
G1 X99.948 Y135.213 E0.15677
G1 X91.816 Y135.213 E0.25496
G1 X91.816 Y130.213 E0.15677
G1 X80.536 Y130.213 E0.35368
G1 X80.536 Y135.213 E0.15677
G1 X72.405 Y135.213 E0.25496
G1 X72.405 Y130.213 E0.15677
G1 X61.125 Y130.213 E0.35368
G1 X61.125 Y135.213 E0.15677
G1 X52.993 Y135.213 E0.25496
G1 X52.993 Y130.213 E0.15677
G1 X48.287 Y130.213 E0.14755
G1 X48.287 Y126.356 E0.12094
G1 X43.287 Y126.356 E0.15677
G1 X43.287 Y119.073 E0.22835
G1 X48.287 Y119.073 E0.15677
G1 X48.287 Y108.641 E0.32707
G1 X43.287 Y108.641 E0.15677
G1 X43.287 Y101.359 E0.22835
G1 X48.287 Y101.359 E0.15677
G1 X48.287 Y90.927 E0.32707
G1 X43.287 Y90.927 E0.15677
G1 X43.287 Y83.644 E0.22835
G1 X48.287 Y83.644 E0.15677
G1 X48.287 Y79.787 E0.12094
G1 X52.993 Y79.787 E0.14755
G1 X52.993 Y74.787 E0.15677
G1 X61.125 Y74.787 E0.25496
G1 X61.125 Y79.727 E0.15489
G1 X61.502 Y79.410 F10800.000
G1 F1200.000
G1 X72.028 Y79.410 E0.33003
G1 X72.028 Y74.410 E0.15677
G1 X80.914 Y74.410 E0.27861
G1 X80.914 Y79.410 E0.15677
G1 X91.439 Y79.410 E0.33003
G1 X91.439 Y74.410 E0.15677
G1 X100.325 Y74.410 E0.27861
G1 X100.325 Y79.410 E0.15677
G1 X110.851 Y79.410 E0.33003
G1 X110.851 Y74.410 E0.15677
G1 X119.737 Y74.410 E0.27861
G1 X119.737 Y79.410 E0.15677
G1 X130.263 Y79.410 E0.33003
G1 X130.263 Y74.410 E0.15677
G1 X139.149 Y74.410 E0.27861
G1 X139.149 Y79.410 E0.15677
G1 X149.675 Y79.410 E0.33003
G1 X149.675 Y74.410 E0.15677
G1 X158.561 Y74.410 E0.27861
G1 X158.561 Y79.410 E0.15677
G1 X169.086 Y79.410 E0.33003
G1 X169.086 Y74.410 E0.15677
G1 X177.972 Y74.410 E0.27861
G1 X177.972 Y79.410 E0.15677
G1 X188.498 Y79.410 E0.33003
G1 X188.498 Y74.410 E0.15677
G1 X197.384 Y74.410 E0.27861
G1 X197.384 Y79.410 E0.15677
G1 X202.090 Y79.410 E0.14755
G1 X202.090 Y83.267 E0.12094
G1 X207.090 Y83.267 E0.15677
G1 X207.090 Y91.304 E0.25200
G1 X202.090 Y91.304 E0.15677
G1 X202.090 Y100.981 E0.30342
G1 X207.090 Y100.981 E0.15677
G1 X207.090 Y109.019 E0.25200
G1 X202.090 Y109.019 E0.15677
G1 X202.090 Y118.696 E0.30342
G1 X207.090 Y118.696 E0.15677
G1 X207.090 Y126.733 E0.25200
G1 X202.090 Y126.733 E0.15677
G1 X202.090 Y130.590 E0.12094
G1 X197.384 Y130.590 E0.14755
G1 X197.384 Y135.590 E0.15677
G1 X188.498 Y135.590 E0.27861
G1 X188.498 Y130.590 E0.15677
G1 X177.972 Y130.590 E0.33003
G1 X177.972 Y135.590 E0.15677
G1 X169.086 Y135.590 E0.27861
G1 X169.086 Y130.590 E0.15677
G1 X158.561 Y130.590 E0.33003
G1 X158.561 Y135.590 E0.15677
G1 X149.675 Y135.590 E0.27861
G1 X149.675 Y130.590 E0.15677
G1 X139.149 Y130.590 E0.33003
G1 X139.149 Y135.590 E0.15677
G1 X130.263 Y135.590 E0.27861
G1 X130.263 Y130.590 E0.15677
G1 X119.737 Y130.590 E0.33003
G1 X119.737 Y135.590 E0.15677
G1 X110.851 Y135.590 E0.27861
G1 X110.851 Y130.590 E0.15677
G1 X100.325 Y130.590 E0.33003
G1 X100.325 Y135.590 E0.15677
G1 X91.439 Y135.590 E0.27861
G1 X91.439 Y130.590 E0.15677
G1 X80.914 Y130.590 E0.33003
G1 X80.914 Y135.590 E0.15677
G1 X72.028 Y135.590 E0.27861
G1 X72.028 Y130.590 E0.15677
G1 X61.502 Y130.590 E0.33003
G1 X61.502 Y135.590 E0.15677
G1 X52.616 Y135.590 E0.27861
G1 X52.616 Y130.590 E0.15677
G1 X47.910 Y130.590 E0.14755
G1 X47.910 Y126.733 E0.12094
G1 X42.910 Y126.733 E0.15677
G1 X42.910 Y118.696 E0.25200
G1 X47.910 Y118.696 E0.15677
G1 X47.910 Y109.019 E0.30342
G1 X42.910 Y109.019 E0.15677
G1 X42.910 Y100.981 E0.25200
G1 X47.910 Y100.981 E0.15677
G1 X47.910 Y91.304 E0.30342
G1 X42.910 Y91.304 E0.15677
G1 X42.910 Y83.267 E0.25200
G1 X47.910 Y83.267 E0.15677
G1 X47.910 Y79.410 E0.12094
G1 X52.616 Y79.410 E0.14755
G1 X52.616 Y74.410 E0.15677
G1 X61.502 Y74.410 E0.27861
G1 X61.502 Y79.350 E0.15489
G1 X61.640 Y79.785 F10800.000
G1 X61.012 Y79.491
G1 F1200.000
G1 X56.590 Y75.070 E0.19648
G1 X57.125 Y75.070 E0.01679
G1 X60.842 Y78.787 E0.16519
G1 X60.842 Y78.253 E0.01679
G1 X57.659 Y75.070 E0.14144
G1 X58.194 Y75.070 E0.01679
G1 X60.842 Y77.718 E0.11769
G1 X60.842 Y77.184 E0.01679
G1 X58.728 Y75.070 E0.09394
G1 X59.262 Y75.070 E0.01679
G1 X60.842 Y76.649 E0.07019
G1 X60.842 Y76.115 E0.01679
G1 X59.797 Y75.070 E0.04644
G1 X60.331 Y75.070 E0.01679
G1 X61.012 Y75.750 E0.03023
G1 F8640.000
G1 X60.331 Y75.070 E-0.22212
G1 X59.797 Y75.070 E-0.12340
G1 X60.842 Y76.115 E-0.34122
G1 X60.842 Y76.432 E-0.07326
G1 E-0.04000 F2100.00000
G1 Z0.800 F10800.000
G1 X67.834 Y79.900
G1 Z0.200
G1 E0.80000 F2100.00000
G1 F1200.000
G1 X88.714 Y100.780 E0.92788
G1 X88.179 Y100.780 E0.01679
G1 X67.469 Y80.070 E0.92034
G1 X66.935 Y80.070 E0.01679
G1 X87.645 Y100.780 E0.92034
G1 X87.111 Y100.780 E0.01679
G1 X66.400 Y80.070 E0.92034
G1 X65.866 Y80.070 E0.01679
G1 X86.576 Y100.780 E0.92034
G1 X86.042 Y100.780 E0.01679
G1 X65.331 Y80.070 E0.92034
G1 X64.797 Y80.070 E0.01679
G1 X85.507 Y100.780 E0.92034
M73 Q1 S147
M73 P1 R146
G1 X84.973 Y100.780 E0.01679
G1 X64.262 Y80.070 E0.92034
G1 X63.728 Y80.070 E0.01679
G1 X84.438 Y100.780 E0.92034
G1 X83.904 Y100.780 E0.01679
G1 X63.194 Y80.070 E0.92034
G1 X62.659 Y80.070 E0.01679
G1 X83.369 Y100.780 E0.92034
G1 X82.835 Y100.780 E0.01679
G1 X62.125 Y80.070 E0.92034
G1 X61.590 Y80.070 E0.01679
G1 X82.301 Y100.780 E0.92034
G1 X81.766 Y100.780 E0.01679
G1 X56.056 Y75.070 E1.14254
G1 X55.521 Y75.070 E0.01679
G1 X81.232 Y100.780 E1.14254
G1 X80.697 Y100.780 E0.01679
G1 X54.987 Y75.070 E1.14254
G1 X54.453 Y75.070 E0.01679
G1 X80.655 Y101.272 E1.16442
G1 X80.655 Y101.807 E0.01679
G1 X53.918 Y75.070 E1.18817
G1 X53.384 Y75.070 E0.01679
G1 X80.655 Y102.341 E1.21192
G1 X80.655 Y102.876 E0.01679
G1 X53.276 Y75.496 E1.21671
G1 X53.276 Y76.031 E0.01679
G1 X80.655 Y103.410 E1.21671
G1 X80.655 Y103.945 E0.01679
G1 X53.276 Y76.565 E1.21671
G1 X53.276 Y77.100 E0.01679
G1 X80.655 Y104.479 E1.21671
G1 X80.655 Y105.014 E0.01679
G1 X53.276 Y77.634 E1.21671
G1 X53.276 Y78.169 E0.01679
G1 X80.655 Y105.548 E1.21671
G1 X80.655 Y106.082 E0.01679
G1 X53.276 Y78.703 E1.21671
G1 X53.276 Y79.238 E0.01679
G1 X80.655 Y106.617 E1.21671
G1 X80.655 Y107.151 E0.01679
G1 X53.276 Y79.772 E1.21671
G1 X53.276 Y80.070 E0.00936
G1 X53.039 Y80.070 E0.00743
G1 X80.655 Y107.686 E1.22722
G1 X80.655 Y108.220 E0.01679
G1 X52.505 Y80.070 E1.25097
G1 X51.970 Y80.070 E0.01679
G1 X80.655 Y108.755 E1.27472
G1 X80.655 Y109.220 E0.01462
G1 X81.120 Y109.220 E0.01462
G1 X101.831 Y129.930 E0.92034
G1 X102.365 Y129.930 E0.01679
G1 X81.655 Y109.220 E0.92034
G1 X82.189 Y109.220 E0.01679
G1 X102.899 Y129.930 E0.92034
G1 X103.434 Y129.930 E0.01679
G1 X82.724 Y109.220 E0.92034
G1 X83.258 Y109.220 E0.01679
G1 X103.968 Y129.930 E0.92034
G1 X104.503 Y129.930 E0.01679
G1 X83.793 Y109.220 E0.92034
G1 X84.327 Y109.220 E0.01679
G1 X105.037 Y129.930 E0.92034
G1 X105.572 Y129.930 E0.01679
G1 X84.861 Y109.220 E0.92034
G1 X85.396 Y109.220 E0.01679
G1 X106.106 Y129.930 E0.92034
G1 X106.641 Y129.930 E0.01679
G1 X85.930 Y109.220 E0.92034
G1 X86.465 Y109.220 E0.01679
G1 X107.175 Y129.930 E0.92034
M73 Q2 S146
M73 P2 R145
G1 X107.709 Y129.930 E0.01679
G1 X86.999 Y109.220 E0.92034
G1 X87.534 Y109.220 E0.01679
G1 X108.244 Y129.930 E0.92034
G1 X108.778 Y129.930 E0.01679
G1 X88.068 Y109.220 E0.92034
G1 X88.603 Y109.220 E0.01679
G1 X109.313 Y129.930 E0.92034
G1 X109.847 Y129.930 E0.01679
G1 X89.095 Y109.178 E0.92221
G1 X89.095 Y108.643 E0.01679
G1 X110.382 Y129.930 E0.94596
G1 X110.916 Y129.930 E0.01679
G1 X89.095 Y108.109 E0.96971
G1 X89.095 Y107.574 E0.01679
G1 X116.451 Y134.930 E1.21566
G1 X116.985 Y134.930 E0.01679
G1 X89.095 Y107.040 E1.23941
G1 X89.095 Y106.506 E0.01679
G1 X117.519 Y134.930 E1.26316
G1 X118.054 Y134.930 E0.01679
G1 X89.095 Y105.971 E1.28691
G1 X89.095 Y105.437 E0.01679
G1 X118.588 Y134.930 E1.31066
G1 X119.077 Y134.930 E0.01536
G1 X119.077 Y134.885 E0.00143
G1 X89.095 Y104.902 E1.33238
G1 X89.095 Y104.368 E0.01679
G1 X119.077 Y134.350 E1.33238
