; generated by PrusaSlicer 2.2.0+win64 on 2020-07-14 at 17:27:56 UTC

; 

; external perimeters extrusion width = 0.45mm
; perimeters extrusion width = 0.45mm
; infill extrusion width = 0.45mm
; solid infill extrusion width = 0.45mm
; top infill extrusion width = 0.40mm
; first layer extrusion width = 0.42mm

M73 P0 R27
M73 Q0 S27
M201 X1000 Y1000 Z1000 E5000 ; sets maximum accelerations, mm/sec^2
M203 X200 Y200 Z12 E120 ; sets maximum feedrates, mm/sec
M204 P1250 R1250 T1250 ; sets acceleration (P, T) and retract acceleration (R), mm/sec^2
M205 X8.00 Y8.00 Z0.40 E4.50 ; sets the jerk limits, mm/sec
M205 S0 T0 ; sets the minimum extruding and travel feed rate, mm/sec
M107
M862.3 P "MK3S" ; printer model check
M862.1 P0.4 ; nozzle diameter check
M115 U3.8.1 ; tell printer latest fw version
G90 ; use absolute coordinates
M83 ; extruder relative mode
M104 S215 ; set extruder temp
M140 S60 ; set bed temp
M190 S60 ; wait for bed temp
M109 S215 ; wait for extruder temp
G28 W ; home all without mesh bed level
G80 ; mesh bed leveling
G1 Y-3.0 F1000.0 ; go outside print area
G92 E0.0
G1 X60.0 E9.0 F1000.0 ; intro line
M73 Q0 S27
M73 P0 R27
G1 X100.0 E12.5 F1000.0 ; intro line
G92 E0.0
M221 S95
G21 ; set units to millimeters
G90 ; use absolute coordinates
M83 ; use relative distances for extrusion
M900 K30 ; Filament gcode
;BEFORE_LAYER_CHANGE
G92 E0.0
;0.2


G1 E-0.80000 F2100.00000
G1 Z0.600 F10800.000
;AFTER_LAYER_CHANGE
;0.2
G1 X112.068 Y98.168
G1 Z0.200
G1 E0.80000 F2100.00000
M204 S1000
G1 F1200.000
G1 X113.035 Y97.343 E0.03985
G1 X113.617 Y97.007 E0.02105
G1 X114.402 Y96.690 E0.02656
G1 X115.824 Y96.449 E0.04521
G1 X133.946 Y96.446 E0.56822
G1 X134.966 Y96.534 E0.03208
G1 X136.146 Y96.895 E0.03870
G1 X137.063 Y97.408 E0.03296
G1 X137.826 Y98.052 E0.03130
G1 X138.459 Y98.834 E0.03156
G1 X138.950 Y99.759 E0.03283
G1 X139.286 Y100.951 E0.03882
G1 X139.353 Y101.955 E0.03155
G1 X139.196 Y103.093 E0.03603
G1 X138.722 Y104.325 E0.04138
G1 X135.099 Y111.210 E0.24393
G1 X134.516 Y112.002 E0.03084
G1 X133.743 Y112.683 E0.03231
G1 X133.054 Y113.086 E0.02502
G1 X132.487 Y113.316 E0.01919
G1 X131.133 Y113.551 E0.04307
G1 X115.648 Y113.539 E0.48552
G1 X114.580 Y113.336 E0.03410
G1 X113.646 Y112.929 E0.03193
G1 X112.812 Y112.325 E0.03231
G1 X112.118 Y111.541 E0.03282
G1 X111.606 Y110.609 E0.03333
G1 X111.286 Y109.399 E0.03925
G1 X110.666 Y102.248 E0.22506
G1 X110.664 Y101.385 E0.02706
G1 X110.873 Y100.263 E0.03577
G1 X111.404 Y99.055 E0.04138
G1 X112.033 Y98.216 E0.03287
G1 F8640.000
G1 X113.035 Y97.343 E-0.30698
G1 X113.617 Y97.007 E-0.15505
G1 X114.402 Y96.690 E-0.19559
G1 X114.839 Y96.616 E-0.10238
G1 E-0.04000 F2100.00000
G1 Z0.800 F10800.000
G1 X113.273 Y97.637
G1 Z0.200
G1 E0.80000 F2100.00000
G1 F1200.000
G1 X114.526 Y97.046 E0.04344
G1 X115.848 Y96.825 E0.04202
G1 X133.946 Y96.823 E0.56744
G1 X134.891 Y96.904 E0.02973
G1 X136.002 Y97.244 E0.03645
G1 X136.855 Y97.722 E0.03064
G1 X137.565 Y98.325 E0.02921
G1 X138.146 Y99.044 E0.02898
G1 X138.605 Y99.911 E0.03076
G1 X138.918 Y101.030 E0.03645
G1 X138.975 Y101.987 E0.03004
G1 X138.849 Y102.929 E0.02981
G1 X138.542 Y103.837 E0.03005
G1 X134.838 Y110.906 E0.25023
G1 X134.256 Y111.727 E0.03155
G1 X133.504 Y112.390 E0.03142
G1 X132.360 Y112.961 E0.04010
G1 X131.107 Y113.174 E0.03986
G1 X115.880 Y113.174 E0.47744
G1 X114.757 Y112.995 E0.03564
G1 X113.872 Y112.623 E0.03011
G1 X113.069 Y112.049 E0.03095
G1 X112.411 Y111.303 E0.03118
G1 X111.880 Y110.270 E0.03643
G1 X111.658 Y109.335 E0.03011
G1 X111.042 Y102.221 E0.22390
G1 X111.040 Y101.413 E0.02533
G1 X111.234 Y100.374 E0.03313
G1 X111.734 Y99.238 E0.03894
G1 X112.349 Y98.420 E0.03206
G1 X113.228 Y97.676 E0.03611
G1 F8640.000
G1 X114.526 Y97.046 E-0.33332
G1 X115.848 Y96.825 E-0.30948
G1 X116.356 Y96.825 E-0.11720
G1 E-0.04000 F2100.00000
G1 Z0.800 F10800.000
G1 X129.954 Y108.195
G1 Z0.200
G1 E0.80000 F2100.00000
G1 F1200.000
G1 X130.103 Y107.990 E0.00793
G1 X130.302 Y107.811 E0.00841
G1 X130.628 Y107.649 E0.01140
G1 X130.875 Y107.597 E0.00793
G1 X131.128 Y107.597 E0.00793
G1 X131.375 Y107.649 E0.00793
G1 X131.606 Y107.752 E0.00793
G1 X131.811 Y107.901 E0.00793
G1 X131.980 Y108.089 E0.00793
G1 X132.106 Y108.308 E0.00793
G1 X132.189 Y108.563 E0.00841
G1 X132.204 Y108.926 E0.01140
G1 X132.152 Y109.173 E0.00793
G1 X132.049 Y109.404 E0.00793
G1 X131.900 Y109.609 E0.00793
G1 X131.712 Y109.778 E0.00793
G1 X131.493 Y109.905 E0.00793
G1 X131.238 Y109.987 E0.00841
G1 X130.875 Y110.002 E0.01140
G1 X130.628 Y109.950 E0.00793
G1 X130.397 Y109.847 E0.00793
G1 X130.192 Y109.698 E0.00793
G1 X130.023 Y109.511 E0.00793
G1 X129.854 Y109.189 E0.01140
G1 X129.799 Y108.926 E0.00841
G1 X129.799 Y108.673 E0.00793
G1 X129.851 Y108.426 E0.00793
G1 X129.930 Y108.250 E0.00605
G1 X129.626 Y108.005 F10800.000
G1 F1200.000
G1 X129.821 Y107.737 E0.01041
G1 X130.072 Y107.511 E0.01059
G1 X130.202 Y107.426 E0.00487
G1 X130.510 Y107.289 E0.01059
G1 X130.835 Y107.220 E0.01041
G1 X131.167 Y107.220 E0.01041
G1 X131.492 Y107.289 E0.01041
G1 X131.796 Y107.424 E0.01041
G1 X132.064 Y107.619 E0.01041
G1 X132.287 Y107.866 E0.01041
G1 X132.453 Y108.154 E0.01041
G1 X132.557 Y108.475 E0.01059
G1 X132.581 Y108.628 E0.00487
G1 X132.581 Y108.966 E0.01059
G1 X132.512 Y109.291 E0.01041
G1 X132.377 Y109.594 E0.01041
G1 X132.182 Y109.863 E0.01041
G1 X131.935 Y110.085 E0.01041
G1 X131.647 Y110.251 E0.01041
G1 X131.326 Y110.355 E0.01059
G1 X131.173 Y110.380 E0.00487
G1 X130.835 Y110.380 E0.01059
G1 X130.510 Y110.310 E0.01041
G1 X130.207 Y110.175 E0.01041
G1 X129.938 Y109.980 E0.01041
G1 X129.716 Y109.733 E0.01041
G1 X129.547 Y109.441 E0.01059
G1 X129.492 Y109.296 E0.00487
G1 X129.421 Y108.966 E0.01059
G1 X129.421 Y108.634 E0.01041
G1 X129.491 Y108.309 E0.01041
G1 X129.601 Y108.060 E0.00853
G1 X129.958 Y108.005 F10800.000
G1 F8640.000
G1 X129.821 Y107.737 E-0.09028
G1 X130.072 Y107.511 E-0.07796
G1 X130.202 Y107.426 E-0.03586
G1 X130.510 Y107.289 E-0.07796
G1 X130.835 Y107.220 E-0.07668
G1 X131.167 Y107.220 E-0.07668
G1 X131.492 Y107.289 E-0.07668
G1 X131.796 Y107.424 E-0.07668
G1 X132.064 Y107.619 E-0.07668
G1 X132.287 Y107.866 E-0.07668
G1 X132.325 Y107.933 E-0.01783
G1 E-0.04000 F2100.00000
G1 Z0.800 F10800.000
G1 X132.074 Y108.613
G1 Z0.200
G1 E0.80000 F2100.00000
G1 F1200.000
G1 X131.456 Y107.995 E0.03237
G1 X131.287 Y107.920 E0.00684
G1 X131.098 Y107.880 E0.00716
G1 X130.905 Y107.880 E0.00716
G1 X130.745 Y107.914 E0.00605
G1 X131.887 Y109.056 E0.05982
G1 X131.802 Y109.262 E0.00825
G1 X131.689 Y109.419 E0.00716
G1 X131.653 Y109.451 E0.00180
G1 X130.352 Y108.151 E0.06809
G1 X130.200 Y108.337 E0.00891
G1 X130.115 Y108.543 E0.00826
G1 X131.251 Y109.679 E0.05945
G1 X131.104 Y109.720 E0.00562
G1 X130.905 Y109.720 E0.00740
G1 X130.715 Y109.679 E0.00716
G1 X130.546 Y109.604 E0.00685
G1 X129.931 Y108.989 E0.03220
G1 F8640.000
G1 X130.546 Y109.604 E-0.20082
G1 X130.715 Y109.679 E-0.04272
G1 X130.905 Y109.720 E-0.04465
G1 X131.104 Y109.720 E-0.04613
G1 X131.251 Y109.679 E-0.03506
G1 X130.115 Y108.543 E-0.37076
G1 X130.148 Y108.464 E-0.01984
G1 E-0.04000 F2100.00000
G1 Z0.800 F10800.000
G1 X127.148 Y109.189
G1 Z0.200
G1 E0.80000 F2100.00000
G1 F1200.000
G1 X126.980 Y109.511 E0.01140
G1 X126.811 Y109.698 E0.00793
G1 X126.606 Y109.847 E0.00793
G1 X126.375 Y109.950 E0.00793
G1 X126.128 Y110.002 E0.00793
G1 X125.875 Y110.002 E0.00793
G1 X125.628 Y109.950 E0.00793
G1 X125.397 Y109.847 E0.00793
G1 X125.192 Y109.698 E0.00793
G1 X125.023 Y109.511 E0.00793
G1 X124.889 Y109.278 E0.00841
G1 X124.799 Y108.926 E0.01140
G1 X124.799 Y108.673 E0.00793
G1 X124.851 Y108.426 E0.00793
G1 X124.954 Y108.195 E0.00793
G1 X125.103 Y107.990 E0.00793
G1 X125.290 Y107.821 E0.00793
G1 X125.523 Y107.687 E0.00841
G1 X125.875 Y107.597 E0.01140
G1 X126.128 Y107.597 E0.00793
G1 X126.375 Y107.649 E0.00793
G1 X126.606 Y107.752 E0.00793
G1 X126.811 Y107.901 E0.00793
G1 X126.980 Y108.089 E0.00793
G1 X127.114 Y108.321 E0.00841
G1 X127.204 Y108.673 E0.01140
G1 X127.204 Y108.926 E0.00793
G1 X127.161 Y109.130 E0.00653
G1 X127.511 Y109.296 F10800.000
G1 F1200.000
G1 X127.455 Y109.441 E0.00487
G1 X127.287 Y109.733 E0.01059
G1 X127.064 Y109.980 E0.01041
G1 X126.796 Y110.175 E0.01041
G1 X126.492 Y110.310 E0.01041
G1 X126.167 Y110.380 E0.01041
G1 X125.835 Y110.380 E0.01041
G1 X125.510 Y110.310 E0.01041
G1 X125.207 Y110.175 E0.01041
G1 X124.938 Y109.980 E0.01041
G1 X124.716 Y109.733 E0.01041
G1 X124.547 Y109.441 E0.01059
G1 X124.492 Y109.296 E0.00487
G1 X124.421 Y108.966 E0.01059
G1 X124.421 Y108.634 E0.01041
G1 X124.491 Y108.309 E0.01041
G1 X124.626 Y108.005 E0.01041
G1 X124.821 Y107.737 E0.01041
G1 X125.068 Y107.514 E0.01041
G1 X125.360 Y107.346 E0.01059
G1 X125.505 Y107.290 E0.00487
G1 X125.835 Y107.220 E0.01059
G1 X126.167 Y107.220 E0.01041
G1 X126.492 Y107.289 E0.01041
G1 X126.796 Y107.424 E0.01041
G1 X127.064 Y107.619 E0.01041
G1 X127.287 Y107.866 E0.01041
G1 X127.455 Y108.158 E0.01059
G1 X127.511 Y108.303 E0.00487
G1 X127.581 Y108.634 E0.01059
G1 X127.581 Y108.966 E0.01041
G1 X127.523 Y109.237 E0.00871
G1 X127.360 Y109.334 F10800.000
G1 F8640.000
G1 X127.455 Y109.441 E-0.04960
G1 X127.287 Y109.733 E-0.07796
G1 X127.064 Y109.980 E-0.07668
G1 X126.796 Y110.175 E-0.07668
G1 X126.492 Y110.310 E-0.07668
G1 X126.167 Y110.380 E-0.07668
G1 X125.835 Y110.380 E-0.07668
G1 X125.510 Y110.310 E-0.07668
G1 X125.207 Y110.175 E-0.07668
G1 X124.938 Y109.980 E-0.07668
G1 X124.883 Y109.919 E-0.01897
G1 E-0.04000 F2100.00000
G1 Z0.800 F10800.000
G1 X124.931 Y108.989
G1 Z0.200
G1 E0.80000 F2100.00000
G1 F1200.000
G1 X125.546 Y109.604 E0.03220
G1 X125.715 Y109.679 E0.00685
G1 X125.905 Y109.720 E0.00716
G1 X126.098 Y109.720 E0.00716
G1 X126.258 Y109.686 E0.00604
G1 X125.115 Y108.543 E0.05981
G1 X125.200 Y108.337 E0.00826
G1 X125.314 Y108.181 E0.00716
G1 X125.350 Y108.148 E0.00179
G1 X126.653 Y109.451 E0.06821
G1 X126.746 Y109.348 E0.00515
G1 X126.887 Y109.056 E0.01200
G1 X125.752 Y107.920 E0.05946
G1 X125.911 Y107.880 E0.00607
G1 X126.098 Y107.880 E0.00694
G1 X126.287 Y107.920 E0.00716
G1 X126.456 Y107.995 E0.00684
G1 X127.071 Y108.610 E0.03221
G1 F8640.000
G1 X126.456 Y107.995 E-0.20092
G1 X126.287 Y107.920 E-0.04265
G1 X126.098 Y107.880 E-0.04465
G1 X125.911 Y107.880 E-0.04329
G1 X125.752 Y107.920 E-0.03788
G1 X126.887 Y109.056 E-0.37087
G1 X126.850 Y109.133 E-0.01974
G1 E-0.04000 F2100.00000
G1 Z0.800 F10800.000
G1 X122.204 Y108.673
G1 Z0.200
G1 E0.80000 F2100.00000
G1 F1200.000
G1 X122.204 Y108.926 E0.00793
G1 X122.152 Y109.173 E0.00793
G1 X122.049 Y109.404 E0.00793
G1 X121.900 Y109.609 E0.00793
G1 X121.712 Y109.778 E0.00793
G1 X121.493 Y109.905 E0.00793
G1 X121.143 Y110.002 E0.01140
G1 X120.875 Y110.002 E0.00841
G1 X120.628 Y109.950 E0.00793
G1 X120.397 Y109.847 E0.00793
G1 X120.192 Y109.698 E0.00793
G1 X120.023 Y109.511 E0.00793
G1 X119.889 Y109.278 E0.00841
G1 X119.799 Y108.926 E0.01140
G1 X119.799 Y108.673 E0.00793
G1 X119.851 Y108.426 E0.00793
G1 X119.954 Y108.195 E0.00793
G1 X120.103 Y107.990 E0.00793
G1 X120.382 Y107.759 E0.01140
G1 X120.628 Y107.649 E0.00841
G1 X120.875 Y107.597 E0.00793
G1 X121.128 Y107.597 E0.00793
G1 X121.375 Y107.649 E0.00793
G1 X121.606 Y107.752 E0.00793
G1 X121.811 Y107.901 E0.00793
G1 X122.042 Y108.181 E0.01140
G1 X122.152 Y108.426 E0.00841
G1 X122.192 Y108.615 E0.00605
G1 X122.375 Y108.000 F10800.000
G1 F1200.000
G1 X122.512 Y108.309 E0.01059
G1 X122.581 Y108.634 E0.01041
G1 X122.581 Y108.966 E0.01041
G1 X122.512 Y109.291 E0.01041
G1 X122.377 Y109.594 E0.01041
G1 X122.182 Y109.863 E0.01041
G1 X121.935 Y110.085 E0.01041
G1 X121.647 Y110.251 E0.01041
G1 X121.326 Y110.355 E0.01059
G1 X121.173 Y110.380 E0.00487
G1 X120.835 Y110.380 E0.01059
G1 X120.510 Y110.310 E0.01041
G1 X120.207 Y110.175 E0.01041
G1 X119.938 Y109.980 E0.01041
G1 X119.716 Y109.733 E0.01041
G1 X119.547 Y109.441 E0.01059
G1 X119.492 Y109.296 E0.00487
G1 X119.421 Y108.966 E0.01059
G1 X119.421 Y108.634 E0.01041
G1 X119.491 Y108.309 E0.01041
G1 X119.626 Y108.005 E0.01041
G1 X119.821 Y107.737 E0.01041
G1 X120.072 Y107.511 E0.01059
G1 X120.202 Y107.426 E0.00487
G1 X120.510 Y107.289 E0.01059
G1 X120.835 Y107.220 E0.01041
G1 X121.167 Y107.220 E0.01041
G1 X121.492 Y107.289 E0.01041
G1 X121.796 Y107.424 E0.01041
G1 X122.064 Y107.619 E0.01041
G1 X122.342 Y107.950 E0.01355
G1 X122.211 Y108.296 F10800.000
G1 F8640.000
G1 X122.512 Y108.309 E-0.09167
G1 X122.581 Y108.634 E-0.07668
G1 X122.581 Y108.966 E-0.07668
G1 X122.512 Y109.291 E-0.07668
G1 X122.377 Y109.594 E-0.07668
G1 X122.182 Y109.863 E-0.07668
G1 X121.935 Y110.085 E-0.07668
G1 X121.647 Y110.251 E-0.07668
G1 X121.326 Y110.355 E-0.07796
G1 X121.173 Y110.380 E-0.03587
G1 X121.096 Y110.380 E-0.01772
G1 E-0.04000 F2100.00000
G1 Z0.800 F10800.000
G1 X119.931 Y108.989
G1 Z0.200
G1 E0.80000 F2100.00000
G1 F1200.000
G1 X120.546 Y109.604 E0.03219
G1 X120.715 Y109.679 E0.00685
G1 X120.905 Y109.720 E0.00716
G1 X121.104 Y109.720 E0.00740
G1 X121.251 Y109.679 E0.00562
G1 X120.115 Y108.543 E0.05943
G1 X120.200 Y108.337 E0.00826
G1 X120.352 Y108.151 E0.00890
G1 X121.653 Y109.451 E0.06808
G1 X121.689 Y109.419 E0.00180
G1 X121.802 Y109.262 E0.00716
G1 X121.887 Y109.056 E0.00824
G1 X120.745 Y107.914 E0.05982
G1 X120.905 Y107.880 E0.00606
G1 X121.098 Y107.880 E0.00716
G1 X121.287 Y107.920 E0.00716
G1 X121.455 Y107.995 E0.00681
G1 X122.076 Y108.616 E0.03251
G1 F8640.000
G1 X121.455 Y107.995 E-0.20279
G1 X121.287 Y107.920 E-0.04248
G1 X121.098 Y107.880 E-0.04465
G1 X120.905 Y107.880 E-0.04465
G1 X120.745 Y107.914 E-0.03777
G1 X121.887 Y109.056 E-0.37314
G1 X121.863 Y109.114 E-0.01452
G1 E-0.04000 F2100.00000
G1 Z0.800 F10800.000
G1 X117.148 Y108.411
G1 Z0.200
G1 E0.80000 F2100.00000
G1 F1200.000
G1 X117.204 Y108.673 E0.00841
G1 X117.204 Y108.926 E0.00793
G1 X117.152 Y109.173 E0.00793
G1 X117.049 Y109.404 E0.00793
G1 X116.900 Y109.609 E0.00793
G1 X116.712 Y109.778 E0.00793
G1 X116.493 Y109.905 E0.00793
G1 X116.253 Y109.983 E0.00793
G1 X115.986 Y110.011 E0.00841
G1 X115.628 Y109.950 E0.01140
G1 X115.397 Y109.847 E0.00793
G1 X115.192 Y109.698 E0.00793
G1 X115.023 Y109.511 E0.00793
G1 X114.896 Y109.292 E0.00793
G1 X114.799 Y108.942 E0.01140
G1 X114.799 Y108.673 E0.00841
G1 X114.851 Y108.426 E0.00793
G1 X114.954 Y108.195 E0.00793
G1 X115.103 Y107.990 E0.00793
G1 X115.302 Y107.811 E0.00841
G1 X115.628 Y107.649 E0.01140
G1 X115.875 Y107.597 E0.00793
G1 X116.128 Y107.597 E0.00793
G1 X116.375 Y107.649 E0.00793
G1 X116.606 Y107.752 E0.00793
G1 X116.811 Y107.901 E0.00793
G1 X116.980 Y108.089 E0.00793
G1 X117.127 Y108.355 E0.00953
G1 X117.479 Y108.220 F10800.000
G1 F1200.000
G1 X117.581 Y108.634 E0.01337
G1 X117.581 Y108.966 E0.01041
G1 X117.512 Y109.291 E0.01041
G1 X117.377 Y109.594 E0.01041
G1 X117.182 Y109.863 E0.01041
G1 X116.935 Y110.085 E0.01041
G1 X116.647 Y110.251 E0.01041
G1 X116.332 Y110.354 E0.01041
G1 X115.996 Y110.389 E0.01059
G1 X115.841 Y110.381 E0.00487
G1 X115.510 Y110.310 E0.01059
G1 X115.207 Y110.175 E0.01041
G1 X114.938 Y109.980 E0.01041
G1 X114.716 Y109.733 E0.01041
G1 X114.550 Y109.446 E0.01041
G1 X114.446 Y109.125 E0.01059
G1 X114.421 Y108.971 E0.00487
G1 X114.421 Y108.634 E0.01059
G1 X114.491 Y108.309 E0.01041
G1 X114.626 Y108.005 E0.01041
G1 X114.821 Y107.737 E0.01041
G1 X115.072 Y107.511 E0.01059
G1 X115.202 Y107.426 E0.00487
G1 X115.510 Y107.289 E0.01059
G1 X115.835 Y107.220 E0.01041
G1 X116.167 Y107.220 E0.01041
G1 X116.492 Y107.289 E0.01041
G1 X116.796 Y107.424 E0.01041
G1 X117.064 Y107.619 E0.01041
G1 X117.287 Y107.866 E0.01041
G1 X117.457 Y108.164 E0.01076
G1 X117.226 Y108.530 F10800.000
G1 F8640.000
G1 X117.581 Y108.634 E-0.11223
G1 X117.581 Y108.966 E-0.07668
G1 X117.512 Y109.291 E-0.07668
G1 X117.377 Y109.594 E-0.07668
G1 X117.182 Y109.863 E-0.07668
G1 X116.935 Y110.085 E-0.07668
G1 X116.647 Y110.251 E-0.07668
G1 X116.332 Y110.354 E-0.07668
G1 X115.996 Y110.389 E-0.07796
G1 X115.853 Y110.381 E-0.03302
G1 E-0.04000 F2100.00000
G1 Z0.800 F10800.000
G1 X114.928 Y108.986
G1 Z0.200
G1 E0.80000 F2100.00000
G1 F1200.000
G1 X115.546 Y109.604 E0.03236
G1 X115.710 Y109.677 E0.00663
G1 X115.995 Y109.725 E0.01070
G1 X116.194 Y109.705 E0.00740
G1 X116.256 Y109.684 E0.00243
G1 X115.115 Y108.543 E0.05973
